X: 220
T: 221. Herr, straf mich nicht in deinem Zorn
N: Derived from chor221.krn
C: Johann Sebastian Bach
%%abc-version 2.0
%%abcx-abcm2ps-target-version 5.9.1 (29 Sep 2008)
%%abc-creator hum2abc beta
%%abcx-conversion-date 2019/03/11 17:28:19
%%abc-edited-by Craig Stuart Sapp
%%humdrum-veritas 3933252416
%%humdrum-veritas-data 580489905
%%
%%barnumbers 0
L: 1/4
M: C
%%staves [1 2 3 4]
V: 1 clef=treble
V: 2 clef=treble
V: 3 clef=treble-8
V: 4 clef=bass
K: C
[V:1] A [I:setbarnb 1]| 
[V:2] E | 
[V:3] c | 
[V:4] A,, | 
[V:1] cBAA | 
[V:2] AA/G/FF- | 
[V:3] ee3//d//cd- | 
[V:4] A,E,F,/E,/D,/C,/ | 
[V:1] GF!fermata!EE | 
[V:2] F/E/- E/D/!fermata!^CE | 
[V:3] d/A/A!fermata!AA | 
[V:4] B,,/^C,/D,!fermata!A,,=C,- | 
[V:1] ^F^GAc | 
[V:2] D3//E// F/E/ E/^F//^G//A | 
[V:3] Ad/c//B// c/d/e | 
[V:4] C,/D,//C,// B,,/E,/ C,/B,,/ A,,/C,/ | 
[V:1] B2!fermata!A :|]  
[V:2] A^G!fermata!E :|]  
[V:3] =f/d/ B/e//d//!fermata!c :|]  
[V:4] D,/B,,/E,!fermata!A,, :|]  
[V:1] B [I:setbarnb 5]| 
[V:2] =G | 
[V:3] e | 
[V:4] E, | 
[V:1] BBBG | 
[V:2] ^FGF3/E/- | 
[V:3] ^deBB/c/- | 
[V:4] B,/A,/G,/^F,/ E,/^D,/E, | 
[V:1] AB!fermata!cB | 
[V:2] E/=D/- D/E/!fermata!EE | 
[V:3] c/=d//c// B//A//B/!fermata!AG | 
[V:4] ^F,^G,!fermata!A,E, | 
[V:1] BBcB | 
[V:2] ^F//G//A^G/A3/=G/- | 
[V:3] Beee3//d// | 
[V:4] ^D,=D,C,/D,/E, | 
[V:1] AA!fermata!^GG | 
[V:2] G/=F//E//D!fermata!EE | 
[V:3] cB/A/!fermata!BB | 
[V:4] F,/E,/F,!fermata!E,E,/D,/ | 
[V:1] ABcd | 
[V:2] EE-E/A//^G//A- | 
[V:3] cBA-A/f/ | 
[V:4] C,/B,,/A,,/^G,,/A,,F,/D,/ | 
[V:1] B2!fermata!A |]  
[V:2] A/^G//^F//G!fermata!E |]  
[V:3] e/B/ e/d/!fermata!^c |]  
[V:4] E,2!fermata!A,, |]  



